; HEADER_BLOCK_START
; generated by OrcaSlicer 2.2.0 on 2026-04-15 at 19:03:45
; total layer number: 25
; filament_density: 1.24
; filament_diameter: 1.75
; max_z_height: 5.00
; HEADER_BLOCK_END

; THUMBNAIL_BLOCK_START

;
; THUMBNAIL_BLOCK_END

; THUMBNAIL_BLOCK_START

;
; THUMBNAIL_BLOCK_END

; external perimeters extrusion width = 0.42mm
; perimeters extrusion width = 0.45mm
; infill extrusion width = 0.45mm
; solid infill extrusion width = 0.42mm
; top infill extrusion width = 0.42mm
; support material extrusion width = 0.42mm
; first layer extrusion width = 0.50mm

; EXECUTABLE_BLOCK_START
EXCLUDE_OBJECT_DEFINE NAME=tolerance_test.stl_id_0_copy_0 CENTER=110,110 POLYGON=[[104.227,110],[107.113,105],[112.887,105],[115.773,110],[112.887,115],[107.113,115],[104.227,110]]
M73 P0 R1
;TYPE:Custom
M220 S100 ;Reset feed rate 
M221 S100 ;Reset flow rate 

M140 S60 ;Set final bed temp
G28 ;Home 
G92 E0 ;Reset extruder 
G1 Z2.0 F3000 ;Move Z Axis up 
G1 X10.1 Y20 Z0.28 F5000.0 ;Move to start position 
M190 S60 ;Wait for bed temp to stabilize
M109 S220 ;Wait for nozzle temp to stabilize
G1 X10.1 Y145.0 Z0.28 F1500.0 E15 ;Draw the first line 
G1 X10.4 Y145.0 Z0.28 F5000.0 ;Move to side a little 
M73 P5 R1
M73 P5 R1
G1 X10.4 Y20 Z0.28 F1500.0 E30 ;Draw the second line 
G92 E0 ;Reset extruder 
G1 E-1.0000 F1800 ;Retract a bit 
M73 P10 R1
M73 P10 R1
G1 Z2.0 F3000 ;Move Z Axis up 
G1 E0.0000 F1800
G90
G21
M83 ; use relative distances for extrusion
; filament start gcode
M106 S0
;LAYER_CHANGE
;Z:0.2
;HEIGHT:0.2
;BEFORE_LAYER_CHANGE
;0.2
G92 E0

G1 E-.8 F1800
;_SET_FAN_SPEED_CHANGING_LAYER
SET_VELOCITY_LIMIT ACCEL=1000 ACCEL_TO_DECEL=500
SET_VELOCITY_LIMIT SQUARE_CORNER_VELOCITY=7
; printing object tolerance_test.stl id:0 copy 0
EXCLUDE_OBJECT_START NAME=tolerance_test.stl_id_0_copy_0
G1 Z.6 F24000
G1 X115.477 Y109.906
G1 Z.6
M73 P11 R1
M73 P11 R1
G1 Z.2
G1 E.8 F2400
;TYPE:Outer wall
;WIDTH:0.41974
G1 F600
G1 X115.522 Y110.016 E.00365
G1 X112.82 Y114.696 E.16594
G1 X112.747 Y114.79 E.00365
G1 X107.343 Y114.79 E.16594
G1 X107.225 Y114.774 E.00365
M73 P12 R1
M73 P12 R1
G1 X104.523 Y110.094 E.16594
G1 X104.478 Y109.984 E.00365
G1 X107.18 Y105.304 E.16594
G1 X107.253 Y105.21 E.00365
M73 P13 R1
M73 P13 R1
G1 X112.657 Y105.21 E.16594
G1 X112.775 Y105.226 E.00365
G1 X115.457 Y109.871 E.16471
; stop printing object tolerance_test.stl id:0 copy 0
G1 E-.56 F1800
M73 P14 R1
;WIPE_START
M73 P14 R1
G1 F3000
G1 X115.522 Y110.016 E-.03808
G1 X115.101 Y110.744 E-.20192
;WIPE_END
EXCLUDE_OBJECT_END NAME=tolerance_test.stl_id_0_copy_0
M106 S255
;LAYER_CHANGE
;Z:0.4
;HEIGHT:0.2
;BEFORE_LAYER_CHANGE
;0.4
G92 E0

;_SET_FAN_SPEED_CHANGING_LAYER
SET_VELOCITY_LIMIT ACCEL=5000 ACCEL_TO_DECEL=2500
M140 S60 ; set bed temperature
; printing object tolerance_test.stl id:0 copy 0
EXCLUDE_OBJECT_START NAME=tolerance_test.stl_id_0_copy_0
G1 Z.8 F24000
G1 X115.477 Y109.906
G1 Z.4
G1 E.8 F2400
G1 F600
G1 X115.522 Y110.016 E.00365
G1 X112.82 Y114.696 E.16594
G1 X112.747 Y114.79 E.00365
M73 P15 R1
M73 P15 R1
G1 X107.343 Y114.79 E.16594
G1 X107.225 Y114.774 E.00365
G1 X104.523 Y110.094 E.16594
G1 X104.478 Y109.984 E.00365
M73 P16 R1
M73 P16 R1
G1 X107.18 Y105.304 E.16594
G1 X107.253 Y105.21 E.00365
G1 X112.657 Y105.21 E.16594
G1 X112.775 Y105.226 E.00365
M73 P17 R1
M73 P17 R1
G1 X115.457 Y109.871 E.16471
; stop printing object tolerance_test.stl id:0 copy 0
G1 E-.61159 F1800
;WIPE_START
G1 F9553.633
G1 X115.522 Y110.016 E-.0299
G1 X115.101 Y110.744 E-.15851
;WIPE_END
EXCLUDE_OBJECT_END NAME=tolerance_test.stl_id_0_copy_0
;LAYER_CHANGE
;Z:0.6
;HEIGHT:0.2
;BEFORE_LAYER_CHANGE
;0.6
G92 E0

;_SET_FAN_SPEED_CHANGING_LAYER
; printing object tolerance_test.stl id:0 copy 0
EXCLUDE_OBJECT_START NAME=tolerance_test.stl_id_0_copy_0
G1 Z1 F24000
G1 X115.477 Y109.906
M73 P18 R1
M73 P18 R1
G1 Z.6
G1 E.8 F2400
G1 F600
G1 X115.522 Y110.016 E.00365
G1 X112.82 Y114.696 E.16594
G1 X112.747 Y114.79 E.00365
G1 X107.343 Y114.79 E.16594
G1 X107.225 Y114.774 E.00365
M73 P19 R1
M73 P19 R1
G1 X104.523 Y110.094 E.16594
G1 X104.478 Y109.984 E.00365
G1 X107.18 Y105.304 E.16594
G1 X107.253 Y105.21 E.00365
M73 P20 R1
M73 P20 R1
G1 X112.657 Y105.21 E.16594
G1 X112.775 Y105.226 E.00365
G1 X115.457 Y109.871 E.16471
; stop printing object tolerance_test.stl id:0 copy 0
G1 E-.61159 F1800
M73 P21 R1
;WIPE_START
M73 P21 R1
G1 F9553.633
G1 X115.522 Y110.016 E-.0299
G1 X115.101 Y110.744 E-.15851
;WIPE_END
EXCLUDE_OBJECT_END NAME=tolerance_test.stl_id_0_copy_0
;LAYER_CHANGE
;Z:0.8
;HEIGHT:0.2
;BEFORE_LAYER_CHANGE
;0.8
G92 E0

;_SET_FAN_SPEED_CHANGING_LAYER
; printing object tolerance_test.stl id:0 copy 0
EXCLUDE_OBJECT_START NAME=tolerance_test.stl_id_0_copy_0
G1 Z1.2 F24000
G1 X115.477 Y109.906
G1 Z.8
G1 E.8 F2400
G1 F600
G1 X115.522 Y110.016 E.00365
G1 X112.82 Y114.696 E.16594
G1 X112.747 Y114.79 E.00365
M73 P22 R1
M73 P22 R1
G1 X107.343 Y114.79 E.16594
G1 X107.225 Y114.774 E.00365
G1 X104.523 Y110.094 E.16594
G1 X104.478 Y109.984 E.00365
M73 P23 R1
M73 P23 R1
G1 X107.18 Y105.304 E.16594
G1 X107.253 Y105.21 E.00365
G1 X112.657 Y105.21 E.16594
G1 X112.775 Y105.226 E.00365
M73 P24 R1
M73 P24 R1
G1 X115.457 Y109.871 E.16471
; stop printing object tolerance_test.stl id:0 copy 0
G1 E-.61159 F1800
;WIPE_START
G1 F9553.633
G1 X115.522 Y110.016 E-.0299
G1 X115.101 Y110.744 E-.15851
;WIPE_END
EXCLUDE_OBJECT_END NAME=tolerance_test.stl_id_0_copy_0
;LAYER_CHANGE
;Z:1
;HEIGHT:0.2
;BEFORE_LAYER_CHANGE
;1
G92 E0

;_SET_FAN_SPEED_CHANGING_LAYER
; printing object tolerance_test.stl id:0 copy 0
EXCLUDE_OBJECT_START NAME=tolerance_test.stl_id_0_copy_0
G1 Z1.4 F24000
G1 X115.477 Y109.906
G1 Z1
G1 E.8 F2400
G1 F600
G1 X115.522 Y110.016 E.00365
G1 X112.82 Y114.696 E.16594
G1 X112.747 Y114.79 E.00365
M73 P25 R1
M73 P25 R1
G1 X107.343 Y114.79 E.16594
G1 X107.225 Y114.774 E.00365
M73 P26 R1
M73 P26 R1
G1 X104.523 Y110.094 E.16594
G1 X104.478 Y109.984 E.00365
G1 X107.18 Y105.304 E.16594
G1 X107.253 Y105.21 E.00365
M73 P27 R1
M73 P27 R1
G1 X112.657 Y105.21 E.16594
G1 X112.775 Y105.226 E.00365
G1 X115.457 Y109.871 E.16471
; stop printing object tolerance_test.stl id:0 copy 0
G1 E-.61159 F1800
M73 P28 R1
;WIPE_START
M73 P28 R1
G1 F9553.633
G1 X115.522 Y110.016 E-.0299
G1 X115.101 Y110.744 E-.15851
;WIPE_END
EXCLUDE_OBJECT_END NAME=tolerance_test.stl_id_0_copy_0
;LAYER_CHANGE
;Z:1.2
;HEIGHT:0.2
;BEFORE_LAYER_CHANGE
;1.2
G92 E0

;_SET_FAN_SPEED_CHANGING_LAYER
; printing object tolerance_test.stl id:0 copy 0
EXCLUDE_OBJECT_START NAME=tolerance_test.stl_id_0_copy_0
G1 Z1.6 F24000
G1 X115.477 Y109.906
G1 Z1.2
G1 E.8 F2400
G1 F600
G1 X115.522 Y110.016 E.00365
G1 X112.82 Y114.696 E.16594
G1 X112.747 Y114.79 E.00365
G1 X107.343 Y114.79 E.16594
G1 X107.225 Y114.774 E.00365
M73 P29 R1
M73 P29 R1
G1 X104.523 Y110.094 E.16594
G1 X104.478 Y109.984 E.00365
G1 X107.18 Y105.304 E.16594
G1 X107.253 Y105.21 E.00365
M73 P30 R1
M73 P30 R1
G1 X112.657 Y105.21 E.16594
G1 X112.775 Y105.226 E.00365
M73 P31 R1
M73 P31 R1
G1 X115.457 Y109.871 E.16471
; stop printing object tolerance_test.stl id:0 copy 0
G1 E-.61159 F1800
;WIPE_START
G1 F9553.633
G1 X115.522 Y110.016 E-.0299
G1 X115.101 Y110.744 E-.15851
;WIPE_END
EXCLUDE_OBJECT_END NAME=tolerance_test.stl_id_0_copy_0
;LAYER_CHANGE
;Z:1.4
;HEIGHT:0.2
;BEFORE_LAYER_CHANGE
;1.4
G92 E0

;_SET_FAN_SPEED_CHANGING_LAYER
; printing object tolerance_test.stl id:0 copy 0
EXCLUDE_OBJECT_START NAME=tolerance_test.stl_id_0_copy_0
G1 Z1.8 F24000
G1 X115.477 Y109.906
G1 Z1.4
G1 E.8 F2400
G1 F600
G1 X115.522 Y110.016 E.00365
G1 X112.82 Y114.696 E.16594
G1 X112.747 Y114.79 E.00365
M73 P32 R1
M73 P32 R1
G1 X107.343 Y114.79 E.16594
G1 X107.225 Y114.774 E.00365
G1 X104.523 Y110.094 E.16594
G1 X104.478 Y109.984 E.00365
M73 P33 R1
M73 P33 R1
G1 X107.18 Y105.304 E.16594
G1 X107.253 Y105.21 E.00365
G1 X112.657 Y105.21 E.16594
G1 X112.775 Y105.226 E.00365
M73 P34 R1
M73 P34 R1
G1 X115.457 Y109.871 E.16471
; stop printing object tolerance_test.stl id:0 copy 0
G1 E-.61159 F1800
M73 P35 R1
;WIPE_START
M73 P35 R1
G1 F9553.633
G1 X115.522 Y110.016 E-.0299
G1 X115.101 Y110.744 E-.15851
;WIPE_END
EXCLUDE_OBJECT_END NAME=tolerance_test.stl_id_0_copy_0
;LAYER_CHANGE
;Z:1.6
;HEIGHT:0.2
;BEFORE_LAYER_CHANGE
;1.6
G92 E0

;_SET_FAN_SPEED_CHANGING_LAYER
; printing object tolerance_test.stl id:0 copy 0
EXCLUDE_OBJECT_START NAME=tolerance_test.stl_id_0_copy_0
G1 Z2 F24000
G1 X115.477 Y109.906
G1 Z1.6
G1 E.8 F2400
G1 F600
G1 X115.522 Y110.016 E.00365
G1 X112.82 Y114.696 E.16594
G1 X112.747 Y114.79 E.00365
G1 X107.343 Y114.79 E.16594
G1 X107.225 Y114.774 E.00365
M73 P36 R1
M73 P36 R1
G1 X104.523 Y110.094 E.16594
G1 X104.478 Y109.984 E.00365
G1 X107.18 Y105.304 E.16594
G1 X107.253 Y105.21 E.00365
M73 P37 R1
M73 P37 R1
G1 X112.657 Y105.21 E.16594
G1 X112.775 Y105.226 E.00365
G1 X115.457 Y109.871 E.16471
; stop printing object tolerance_test.stl id:0 copy 0
G1 E-.61159 F1800
M73 P38 R1
;WIPE_START
M73 P38 R1
G1 F9553.633
G1 X115.522 Y110.016 E-.0299
G1 X115.101 Y110.744 E-.15851
;WIPE_END
EXCLUDE_OBJECT_END NAME=tolerance_test.stl_id_0_copy_0
;LAYER_CHANGE
;Z:1.8
;HEIGHT:0.2
;BEFORE_LAYER_CHANGE
;1.8
G92 E0

;_SET_FAN_SPEED_CHANGING_LAYER
; printing object tolerance_test.stl id:0 copy 0
EXCLUDE_OBJECT_START NAME=tolerance_test.stl_id_0_copy_0
G1 Z2.2 F24000
G1 X115.477 Y109.906
G1 Z1.8
G1 E.8 F2400
G1 F600
G1 X115.522 Y110.016 E.00365
G1 X112.82 Y114.696 E.16594
G1 X112.747 Y114.79 E.00365
M73 P39 R1
M73 P39 R1
G1 X107.343 Y114.79 E.16594
G1 X107.225 Y114.774 E.00365
G1 X104.523 Y110.094 E.16594
G1 X104.478 Y109.984 E.00365
M73 P40 R1
M73 P40 R1
G1 X107.18 Y105.304 E.16594
G1 X107.253 Y105.21 E.00365
G1 X112.657 Y105.21 E.16594
G1 X112.775 Y105.226 E.00365
M73 P41 R1
M73 P41 R1
G1 X115.457 Y109.871 E.16471
; stop printing object tolerance_test.stl id:0 copy 0
G1 E-.61159 F1800
;WIPE_START
G1 F9553.633
G1 X115.522 Y110.016 E-.0299
G1 X115.101 Y110.744 E-.15851
;WIPE_END
EXCLUDE_OBJECT_END NAME=tolerance_test.stl_id_0_copy_0
;LAYER_CHANGE
;Z:2
;HEIGHT:0.2
;BEFORE_LAYER_CHANGE
;2
G92 E0

;_SET_FAN_SPEED_CHANGING_LAYER
; printing object tolerance_test.stl id:0 copy 0
EXCLUDE_OBJECT_START NAME=tolerance_test.stl_id_0_copy_0
G1 Z2.4 F24000
G1 X115.477 Y109.906
G1 Z2
G1 E.8 F2400
M73 P42 R1
M73 P42 R1
G1 F600
G1 X115.522 Y110.016 E.00365
G1 X112.82 Y114.696 E.16594
G1 X112.747 Y114.79 E.00365
M73 P42 R0
M73 P42 R0
G1 X107.343 Y114.79 E.16594
G1 X107.225 Y114.774 E.00365
M73 P43 R0
M73 P43 R0
G1 X104.523 Y110.094 E.16594
G1 X104.478 Y109.984 E.00365
G1 X107.18 Y105.304 E.16594
G1 X107.253 Y105.21 E.00365
M73 P44 R0
M73 P44 R0
G1 X112.657 Y105.21 E.16594
G1 X112.775 Y105.226 E.00365
G1 X115.457 Y109.871 E.16471
; stop printing object tolerance_test.stl id:0 copy 0
G1 E-.61159 F1800
M73 P45 R0
;WIPE_START
M73 P45 R0
G1 F9553.633
G1 X115.522 Y110.016 E-.0299
G1 X115.101 Y110.744 E-.15851
;WIPE_END
EXCLUDE_OBJECT_END NAME=tolerance_test.stl_id_0_copy_0
;LAYER_CHANGE
;Z:2.2
;HEIGHT:0.2
;BEFORE_LAYER_CHANGE
;2.2
G92 E0

;_SET_FAN_SPEED_CHANGING_LAYER
; printing object tolerance_test.stl id:0 copy 0
EXCLUDE_OBJECT_START NAME=tolerance_test.stl_id_0_copy_0
G1 Z2.6 F24000
G1 X115.477 Y109.906
G1 Z2.2
G1 E.8 F2400
G1 F600
G1 X115.522 Y110.016 E.00365
G1 X112.82 Y114.696 E.16594
G1 X112.747 Y114.79 E.00365
M73 P46 R0
M73 P46 R0
G1 X107.343 Y114.79 E.16594
G1 X107.225 Y114.774 E.00365
G1 X104.523 Y110.094 E.16594
G1 X104.478 Y109.984 E.00365
M73 P47 R0
M73 P47 R0
G1 X107.18 Y105.304 E.16594
G1 X107.253 Y105.21 E.00365
G1 X112.657 Y105.21 E.16594
G1 X112.775 Y105.226 E.00365
M73 P48 R0
M73 P48 R0
G1 X115.457 Y109.871 E.16471
; stop printing object tolerance_test.stl id:0 copy 0
G1 E-.61159 F1800
;WIPE_START
G1 F9553.633
G1 X115.522 Y110.016 E-.0299
G1 X115.101 Y110.744 E-.15851
;WIPE_END
EXCLUDE_OBJECT_END NAME=tolerance_test.stl_id_0_copy_0
;LAYER_CHANGE
;Z:2.4
;HEIGHT:0.2
;BEFORE_LAYER_CHANGE
;2.4
G92 E0

;_SET_FAN_SPEED_CHANGING_LAYER
; printing object tolerance_test.stl id:0 copy 0
EXCLUDE_OBJECT_START NAME=tolerance_test.stl_id_0_copy_0
G1 Z2.8 F24000
G1 X115.477 Y109.906
G1 Z2.4
G1 E.8 F2400
G1 F600
G1 X115.522 Y110.016 E.00365
G1 X112.82 Y114.696 E.16594
G1 X112.747 Y114.79 E.00365
M73 P49 R0
M73 P49 R0
G1 X107.343 Y114.79 E.16594
G1 X107.225 Y114.774 E.00365
G1 X104.523 Y110.094 E.16594
G1 X104.478 Y109.984 E.00365
M73 P50 R0
M73 P50 R0
G1 X107.18 Y105.304 E.16594
G1 X107.253 Y105.21 E.00365
M73 P51 R0
M73 P51 R0
G1 X112.657 Y105.21 E.16594
G1 X112.775 Y105.226 E.00365
G1 X115.457 Y109.871 E.16471
; stop printing object tolerance_test.stl id:0 copy 0
G1 E-.61159 F1800
M73 P52 R0
;WIPE_START
M73 P52 R0
G1 F9553.633
G1 X115.522 Y110.016 E-.0299
G1 X115.101 Y110.744 E-.15851
;WIPE_END
EXCLUDE_OBJECT_END NAME=tolerance_test.stl_id_0_copy_0
;LAYER_CHANGE
;Z:2.6
;HEIGHT:0.2
;BEFORE_LAYER_CHANGE
;2.6
G92 E0

;_SET_FAN_SPEED_CHANGING_LAYER
; printing object tolerance_test.stl id:0 copy 0
EXCLUDE_OBJECT_START NAME=tolerance_test.stl_id_0_copy_0
G1 Z3 F24000
G1 X115.477 Y109.906
G1 Z2.6
G1 E.8 F2400
G1 F600
G1 X115.522 Y110.016 E.00365
G1 X112.82 Y114.696 E.16594
G1 X112.747 Y114.79 E.00365
G1 X107.343 Y114.79 E.16594
G1 X107.225 Y114.774 E.00365
M73 P53 R0
M73 P53 R0
G1 X104.523 Y110.094 E.16594
G1 X104.478 Y109.984 E.00365
G1 X107.18 Y105.304 E.16594
G1 X107.253 Y105.21 E.00365
M73 P54 R0
M73 P54 R0
G1 X112.657 Y105.21 E.16594
G1 X112.775 Y105.226 E.00365
G1 X115.457 Y109.871 E.16471
; stop printing object tolerance_test.stl id:0 copy 0
G1 E-.61159 F1800
M73 P55 R0
;WIPE_START
M73 P55 R0
G1 F9553.633
G1 X115.522 Y110.016 E-.0299
G1 X115.101 Y110.744 E-.15851
;WIPE_END
EXCLUDE_OBJECT_END NAME=tolerance_test.stl_id_0_copy_0
;LAYER_CHANGE
;Z:2.8
;HEIGHT:0.2
;BEFORE_LAYER_CHANGE
;2.8
G92 E0

;_SET_FAN_SPEED_CHANGING_LAYER
; printing object tolerance_test.stl id:0 copy 0
EXCLUDE_OBJECT_START NAME=tolerance_test.stl_id_0_copy_0
G1 Z3.2 F24000
G1 X115.477 Y109.906
G1 Z2.8
G1 E.8 F2400
G1 F600
G1 X115.522 Y110.016 E.00365
G1 X112.82 Y114.696 E.16594
G1 X112.747 Y114.79 E.00365
M73 P56 R0
M73 P56 R0
G1 X107.343 Y114.79 E.16594
G1 X107.225 Y114.774 E.00365
G1 X104.523 Y110.094 E.16594
G1 X104.478 Y109.984 E.00365
M73 P57 R0
M73 P57 R0
G1 X107.18 Y105.304 E.16594
G1 X107.253 Y105.21 E.00365
G1 X112.657 Y105.21 E.16594
G1 X112.775 Y105.226 E.00365
M73 P58 R0
M73 P58 R0
G1 X115.457 Y109.871 E.16471
; stop printing object tolerance_test.stl id:0 copy 0
G1 E-.61159 F1800
;WIPE_START
G1 F9553.633
G1 X115.522 Y110.016 E-.0299
G1 X115.101 Y110.744 E-.15851
;WIPE_END
EXCLUDE_OBJECT_END NAME=tolerance_test.stl_id_0_copy_0
;LAYER_CHANGE
;Z:3
;HEIGHT:0.2
;BEFORE_LAYER_CHANGE
;3
G92 E0

;_SET_FAN_SPEED_CHANGING_LAYER
; printing object tolerance_test.stl id:0 copy 0
EXCLUDE_OBJECT_START NAME=tolerance_test.stl_id_0_copy_0
G1 Z3.4 F24000
G1 X115.477 Y109.906
M73 P59 R0
M73 P59 R0
G1 Z3
G1 E.8 F2400
G1 F600
G1 X115.522 Y110.016 E.00365
G1 X112.82 Y114.696 E.16594
G1 X112.747 Y114.79 E.00365
G1 X107.343 Y114.79 E.16594
G1 X107.225 Y114.774 E.00365
M73 P60 R0
M73 P60 R0
G1 X104.523 Y110.094 E.16594
G1 X104.478 Y109.984 E.00365
G1 X107.18 Y105.304 E.16594
G1 X107.253 Y105.21 E.00365
M73 P61 R0
M73 P61 R0
G1 X112.657 Y105.21 E.16594
G1 X112.775 Y105.226 E.00365
G1 X115.457 Y109.871 E.16471
; stop printing object tolerance_test.stl id:0 copy 0
G1 E-.61159 F1800
M73 P62 R0
;WIPE_START
M73 P62 R0
G1 F9553.633
G1 X115.522 Y110.016 E-.0299
G1 X115.101 Y110.744 E-.15851
;WIPE_END
EXCLUDE_OBJECT_END NAME=tolerance_test.stl_id_0_copy_0
;LAYER_CHANGE
;Z:3.2
;HEIGHT:0.2
;BEFORE_LAYER_CHANGE
;3.2
G92 E0

;_SET_FAN_SPEED_CHANGING_LAYER
; printing object tolerance_test.stl id:0 copy 0
EXCLUDE_OBJECT_START NAME=tolerance_test.stl_id_0_copy_0
G1 Z3.6 F24000
G1 X115.477 Y109.906
G1 Z3.2
G1 E.8 F2400
G1 F600
G1 X115.522 Y110.016 E.00365
G1 X112.82 Y114.696 E.16594
G1 X112.747 Y114.79 E.00365
M73 P63 R0
M73 P63 R0
G1 X107.343 Y114.79 E.16594
G1 X107.225 Y114.774 E.00365
G1 X104.523 Y110.094 E.16594
G1 X104.478 Y109.984 E.00365
M73 P64 R0
M73 P64 R0
G1 X107.18 Y105.304 E.16594
G1 X107.253 Y105.21 E.00365
G1 X112.657 Y105.21 E.16594
G1 X112.775 Y105.226 E.00365
M73 P65 R0
M73 P65 R0
